public/img/HOW/Potential.svg

<?xml version="1.0" encoding="UTF-8"?>
<svg width="140px" height="160px" viewBox="0 0 140 160" version="1.1" xmlns="http://www.w3.org/2000/svg" xmlns:xlink="http://www.w3.org/1999/xlink">
    <!-- Generator: Sketch 42 (36781) - http://www.bohemiancoding.com/sketch -->
    <title>Measure</title>
    <desc>Created with Sketch.</desc>
    <defs></defs>
    <g id="Page-1" stroke="none" stroke-width="1" fill="none" fill-rule="evenodd">
        <g id="Landing-Copy-3" transform="translate(-371.000000, -1409.000000)">
            <g id="HOW-IT-WORKS-Copy" transform="translate(55.000000, 1255.000000)">
                <g id="Measure" transform="translate(316.000000, 154.000000)">
                    <polygon id="Fill-1" fill="#54BDC7" points="0 39.9998118 0 119.999812 69.9981333 159.999812 140 119.999812 140 39.9998118 69.9981333 -0.000188235294"></polygon>
                    <polygon id="Fill-2" fill="#54BDC7" points="-0.000186666667 39.9995294 -0.000186666667 120.000471 69.9979467 159.999529 139.999813 120.000471 139.999813 39.9995294 69.9979467 -0.000470588235"></polygon>
                    <polygon id="Fill-3" fill="#54BDC7" points="9.33333335e-05 39.9998118 9.33333335e-05 119.999812 69.9982267 159.999812 140.000093 119.999812 140.000093 39.9998118 69.9982267 -0.000188235294"></polygon>
                    <polygon id="Fill-4" fill="#FFFFFF" points="54.3433333 89.9802353 61.0008 89.9802353 61.0008 70.512 54.3433333 70.512"></polygon>
                    <polygon id="Fill-5" fill="#FFFFFF" points="62.9962667 89.9802353 69.6528 89.9802353 69.6528 64.4715294 62.9962667 64.4715294"></polygon>
                    <polygon id="Fill-6" fill="#FFFFFF" points="90.2888 89.9802353 96.9462667 89.9802353 96.9462667 64.4715294 90.2888 64.4715294"></polygon>
                    <polygon id="Fill-7" fill="#FFFFFF" points="72.982 89.9802353 78.9721333 89.9802353 78.9721333 74.5411765 72.982 74.5411765"></polygon>
                    <polygon id="Fill-8" fill="#FFFFFF" points="81.6358667 89.9802353 88.2933333 89.9802353 88.2933333 58.4301176 81.6358667 58.4301176"></polygon>
                    <path d="M43.7266667,76.0150588 C42.5973333,74.9656471 41.0498667,73.6555294 38.9228,72.0141176 L35.9958667,75.8663529 C38.626,77.8964706 41.7741333,80.64 42.2744,81.4917647 C42.2632,81.472 42.1922667,81.3364706 42.1474667,81.1096471 L46.7973333,81.3741176 C49.7989333,71.9181176 58.3436,60.7237647 61.656,60.5562353 L61.4161333,55.7101176 C54.8837333,56.0385882 47.2789333,68.0451765 43.7266667,76.0150588 Z" id="Clip-10" fill="#FFFFFF"></path>
                    <path d="M127.330373,117.973082 C128.80784,117.973082 130.074373,116.567906 130.074373,115.070494 L130.074373,111.384847 L8.74104,111.384847 L8.74104,115.070494 C8.74104,116.567906 11.1873067,117.973082 12.6657067,117.973082 L127.330373,117.973082 Z M20.35264,103.855435 L13.29664,108.561318 L126.54824,108.561318 L119.49224,103.855435 L20.35264,103.855435 Z M19.94104,45.1147294 L19.94104,101.031906 L119.807707,101.031906 L119.807707,45.1147294 C119.807707,43.6992 118.127707,41.7377882 116.723973,41.7377882 L23.1815733,41.7377882 C21.77784,41.7377882 19.94104,43.6992 19.94104,45.1147294 Z M131.822507,111.384847 L131.94104,111.384847 L131.94104,115.070494 C131.94104,117.717082 129.94744,119.855435 127.330373,119.855435 L12.6657067,119.855435 C10.0477067,119.855435 7.80770667,117.717082 7.80770667,115.070494 L7.80770667,111.384847 L7.78250667,111.384847 L7.80770667,111.542965 L7.80770667,111.384847 L8.02144,111.384847 L18.0743733,102.634729 L18.0743733,45.1147294 C18.0743733,42.6102588 20.6979733,39.8554353 23.1815733,39.8554353 L116.723973,39.8554353 C119.207573,39.8554353 121.674373,42.6102588 121.674373,45.1147294 L121.674373,102.730729 L131.822507,111.384847 Z" id="Fill-12" fill="#FFFFFF"></path>
                    <path d="M26.474,94.4432941 L113.274,94.4432941 L113.274,48.3256471 L26.474,48.3256471 L26.474,94.4432941 Z M24.6073333,97.2668235 L115.140667,97.2668235 L115.140667,46.4432941 L24.6073333,46.4432941 L24.6073333,97.2668235 Z" id="Fill-14" fill="#FFFFFF"></path>
                </g>
            </g>
        </g>
    </g>
</svg>

<svg width="140" height="160" viewBox="0 0 140 160" xmlns="http://www.w3.org/2000/svg"><title>Measure</title><g fill="none" fill-rule="evenodd"><path fill="#54BDC7" d="M0 40v80l69.998 40L140 120V40L69.998 0z"/><path fill="#54BDC7" d="M0 40v80l69.998 40L140 120V40L69.998 0z"/><path fill="#54BDC7" d="M0 40v80l69.998 40L140 120V40L69.998 0z"/><path fill="#FFF" d="M54.343 89.98h6.658V70.512h-6.658zM62.996 89.98h6.657V64.472h-6.657zM90.289 89.98h6.657V64.472H90.29zM72.982 89.98h5.99V74.541h-5.99zM81.636 89.98h6.657V58.43h-6.657z"/><path d="M43.727 76.015c-1.13-1.05-2.677-2.36-4.804-4l-2.927 3.851c2.63 2.03 5.778 4.774 6.278 5.626a1.386 1.386 0 0 1-.127-.382l4.65.264c3.002-9.456 11.547-20.65 14.859-20.818l-.24-4.846c-6.532.329-14.137 12.335-17.69 20.305z" fill="#FFF"/><path d="M127.33 117.973c1.478 0 2.744-1.405 2.744-2.903v-3.685H8.741v3.685c0 1.498 2.446 2.903 3.925 2.903H127.33zM20.353 103.855l-7.056 4.706h113.251l-7.056-4.706h-99.14zm-.412-58.74v55.917h99.867V45.115c0-1.416-1.68-3.377-3.084-3.377H23.182c-1.404 0-3.241 1.961-3.241 3.377zm111.882 66.27h.118v3.685c0 2.647-1.994 4.785-4.61 4.785H12.665c-2.618 0-4.858-2.138-4.858-4.785v-3.685h-.025l.025.158v-.158h.213l10.053-8.75v-57.52c0-2.505 2.624-5.26 5.108-5.26h93.542c2.484 0 4.95 2.755 4.95 5.26v57.616l10.149 8.654z" fill="#FFF"/><path d="M26.474 94.443h86.8V48.326h-86.8v46.117zm-1.867 2.824h90.534V46.443H24.607v50.824z" fill="#FFF"/></g></svg>
